icons/cloud-percent.svg

<svg xmlns="http://www.w3.org/2000/svg" width="24" height="24" viewBox="0 0 24 24">
  <path d="M12.5,3 C16.918278,3 20.5,6.581722 20.5,11 C20.5,11.1204206 20.4973322,11.2405319 20.4920144,11.3602705 L20.4920144,11.3602705 L20.472,11.654 L20.5287365,11.6859719 C21.9683651,12.5292172 22.9183208,14.0574067 22.9949844,15.7749408 L22.9949844,15.7749408 L23,16 C23,18.6686219 20.9044736,20.8633628 18.2241536,20.9948042 L18.2241536,20.9948042 L18,21 L6.5,21 C6.38859112,21 6.28147754,20.9817932 6.18145173,20.9482064 L6.18145173,20.9482064 L6.166,20.942 L5.94889404,20.9081606 C3.19270368,20.4215684 1.11197825,18.064907 1.0043751,15.2308104 L1.0043751,15.2308104 L1,15 C1,12.5890868 2.43448394,10.4577805 4.56984355,9.51249345 L4.56984355,9.51249345 L4.646,9.48 L4.66919046,9.36089212 C5.4117318,5.78500472 8.52762508,3.12063681 12.2455902,3.00398632 L12.2455902,3.00398632 Z M15.7071068,15.2928932 C15.3165825,14.9023689 14.6834175,14.9023689 14.2928932,15.2928932 C13.9023689,15.6834175 13.9023689,16.3165825 14.2928932,16.7071068 C14.6834175,17.0976311 15.3165825,17.0976311 15.7071068,16.7071068 C16.0976311,16.3165825 16.0976311,15.6834175 15.7071068,15.2928932 Z M15.7071068,9.29289322 C15.3165825,8.90236893 14.6834175,8.90236893 14.2928932,9.29289322 L14.2928932,9.29289322 L8.29289322,15.2928932 L8.20970461,15.3871006 C7.90467972,15.7793918 7.93240926,16.3466228 8.29289322,16.7071068 C8.68341751,17.0976311 9.31658249,17.0976311 9.70710678,16.7071068 L9.70710678,16.7071068 L15.7071068,10.7071068 L15.7902954,10.6128994 C16.0953203,10.2206082 16.0675907,9.65337718 15.7071068,9.29289322 Z M9.70710678,9.29289322 C9.31658249,8.90236893 8.68341751,8.90236893 8.29289322,9.29289322 C7.90236893,9.68341751 7.90236893,10.3165825 8.29289322,10.7071068 C8.68341751,11.0976311 9.31658249,11.0976311 9.70710678,10.7071068 C10.0976311,10.3165825 10.0976311,9.68341751 9.70710678,9.29289322 Z"/>
</svg>

<svg xmlns="http://www.w3.org/2000/svg" viewBox="0 0 24 24">
  <path d="M12.5 3a8 8 0 0 1 8 8.36l-.03.3.06.03a5 5 0 0 1 2.46 4.08L23 16a5 5 0 0 1-4.78 5H6.5a1 1 0 0 1-.32-.05h-.01l-.22-.04A6 6 0 0 1 1 15.23V15a6 6 0 0 1 3.57-5.49l.08-.03.02-.12A8 8 0 0 1 12.25 3zm3.2 12.3a1 1 0 1 0-1.4 1.4 1 1 0 0 0 1.4-1.4zm0-6a1 1 0 0 0-1.4 0l-6 6-.09.09a1 1 0 0 0 1.5 1.32l6-6 .08-.1a1 1 0 0 0-.08-1.32zm-6 0a1 1 0 1 0-1.4 1.4 1 1 0 0 0 1.4-1.4z"/>
</svg>
